svg/Pictogram/pictograms-aem-0043r-hot_surface.svg

<?xml version="1.0" encoding="ISO-8859-1" standalone="yes"?>
<svg height="306.397" width="306.397">
  <metadata>
    <rdf:RDF xmlns:cc="http://web.resource.org/cc/" xmlns:dc="http://purl.org/dc/elements/1.1/" xmlns:rdf="http://www.w3.org/1999/02/22-rdf-syntax-ns#">
      <cc:Work rdf:about="">
        <dc:title></dc:title>
        <dc:description></dc:description>
        <dc:subject>
          <rdf:Bag>
            <rdf:li></rdf:li>
          </rdf:Bag>
        </dc:subject>
        <dc:publisher>
          <cc:Agent rdf:about="http://www.unece.org/trans/danger/publi/ghs/pictograms.html">
            <dc:title>Source: UNECE GHS of Classification and Labeling of Chemicals, Source: AEM Pictorial Database, Source: AEM Pictorial Database, Source: AEM Pictorial Database, Source: AEM Pictorial Database</dc:title>
          </cc:Agent>
        </dc:publisher>
        <dc:creator>
          <cc:Agent>
            <dc:title></dc:title>
          </cc:Agent>
        </dc:creator>
        <dc:rights>
          <cc:Agent>
            <dc:title></dc:title>
          </cc:Agent>
        </dc:rights>
        <dc:date></dc:date>
        <dc:format>image/svg+xml</dc:format>
        <dc:type rdf:resource="http://purl.org/dc/dcmitype/StillImage"/>
        <cc:license rdf:resource="http://en.wikipedia.org/wiki/Public_domain"/>
        <dc:language>en</dc:language>
      </cc:Work>
    </rdf:RDF>
  </metadata>
  <defs><marker id="ArrowEnd" markerHeight="3" markerUnits="strokeWidth" markerWidth="4" orient="auto" refX="0" refY="5" viewBox="0 0 10 10"><path d="M 0 0 L 10 5 L 0 10 z"/></marker><marker id="ArrowStart" markerHeight="3" markerUnits="strokeWidth" markerWidth="4" orient="auto" refX="10" refY="5" viewBox="0 0 10 10"><path d="M 10 0 L 0 5 L 10 10 z"/></marker> </defs>
  <g id="g2958" transform="matrix(1.3532768,0,0,1.3532781,-53.207834,-52.192858)">
    <path d="M 263.647 72.4054L 219.265 91.0654C 210.218 94.4604 202.3 93.8934 193.257 91.6314C 184.206 89.3704 76.7845 50.3584 76.7845 50.3584C 76.7845 50.3584 69.4329 64.4914 81.8704 70.1474C 94.3079 75.8034 99.9642 78.0614 99.9642 78.0614L 54.7337 80.3234C 54.7337 80.3234 55.3001 97.2844 67.7376 97.2844C 80.1751 97.2844 122.015 96.7214 122.015 96.7214L 49.0813 113.682C 51.9056 124.991 58.1243 130.077 68.304 128.381C 78.4798 126.686 125.405 115.944 129.366 114.811C 133.319 113.682 136.714 113.682 139.546 115.944C 142.366 118.202 168.374 132.342 168.374 132.342C 168.374 132.342 141.233 128.381 135.018 127.815C 128.8 127.253 114.667 132.342 115.229 145.909C 115.229 145.909 179.112 156.655 187.597 157.784C 196.081 158.913 211.35 158.913 220.397 153.256C 229.444 147.604 232.272 145.342 236.796 143.081C 241.311 140.823 263.362 128.948 263.362 128.948L 263.647 72.4054" style="stroke:none; fill-rule:evenodd; fill:#000000"/>
    <path d="M 50.679 203.393C 52.7571 205.577 51.9602 210.026 51.2923 211.429C 51.2923 211.429 47.597 219.78 47.597 219.78L 49.9954 220.819L 53.6516 212.55C 54.7415 210.265 55.5423 204.706 52.5735 201.592L 50.679 203.393" style="stroke:none; fill-rule:evenodd; fill:#000000"/>
    <path d="M 61.2181 202.198L 61.4563 202.725C 62.8743 205.925 62.4954 209.066 61.9368 211.722C 61.6165 213.23 59.8274 218.093 59.1634 219.835L 61.6048 220.765C 61.7063 220.499 64.0657 214.28 64.4954 212.261C 65.1009 209.374 65.5735 205.566 63.8431 201.667C 63.8431 201.663 63.597 201.12 63.597 201.12C 62.6985 199.135 61.9212 197.421 62.3821 194.534L 59.8001 194.124C 59.2181 197.788 60.2806 200.128 61.2181 202.198" style="stroke:none; fill-rule:evenodd; fill:#000000"/>
    <path d="M 73.7415 202.706C 75.1595 206.058 74.7493 209.284 74.2337 211.722C 73.9134 213.23 72.1243 218.093 71.4642 219.835L 73.9056 220.765C 74.0071 220.499 76.3626 214.28 76.7923 212.261C 77.3392 209.671 77.8704 205.753 76.1516 201.686C 74.6087 198.049 73.3118 193.37 75.3548 186.225L 72.8431 185.506C 70.5774 193.432 72.0266 198.651 73.7454 202.706" style="stroke:none; fill-rule:evenodd; fill:#000000"/>
    <path d="M 82.7376 194.393C 82.9212 197.936 83.9212 200.698 84.7688 202.706C 86.1868 206.054 85.7727 209.284 85.2571 211.718C 84.9368 213.23 83.1477 218.093 82.4837 219.835L 84.929 220.765C 85.0266 220.499 87.386 214.28 87.8157 212.261C 88.3626 209.667 88.8938 205.753 87.1751 201.686C 86.4095 199.878 85.511 197.393 85.347 194.256L 82.7376 194.393" style="stroke:none; fill-rule:evenodd; fill:#000000"/>
    <path d="M 95.7298 175.358C 96.2298 177.323 96.4251 182.483 95.2454 185.018C 91.9212 192.159 93.886 198.534 95.6516 202.706C 97.0696 206.058 96.6595 209.284 96.1438 211.718C 95.8235 213.233 94.0306 218.093 93.3704 219.835L 95.8118 220.765C 95.9134 220.499 98.2727 214.28 98.6985 212.261C 99.2493 209.671 99.7806 205.757 98.0618 201.686C 96.3548 197.659 94.7649 192.249 97.6165 186.12C 99.1438 182.838 98.8548 177.038 98.261 174.714L 95.7298 175.358" style="stroke:none; fill-rule:evenodd; fill:#000000"/>
    <path d="M 107.108 172.151C 108.003 174.167 108.597 181.686 107.808 183.585C 104.272 192.053 104.975 197.006 107.382 202.706C 108.804 206.062 108.393 209.284 107.874 211.718C 107.554 213.23 105.765 218.093 105.1 219.835L 107.546 220.765C 107.647 220.499 110.003 214.28 110.432 212.261C 110.979 209.671 111.511 205.757 109.792 201.686C 107.604 196.51 107.022 192.249 110.222 184.588C 111.366 181.827 110.577 173.518 109.495 171.088L 107.108 172.151" style="stroke:none; fill-rule:evenodd; fill:#000000"/>
    <path d="M 118.487 179.518C 118.558 182.319 118.229 183.338 118.128 183.585C 114.589 192.069 115.292 197.018 117.706 202.706C 119.12 206.062 118.71 209.284 118.194 211.718C 117.874 213.23 116.085 218.093 115.421 219.835L 117.862 220.765C 117.964 220.499 120.323 214.28 120.753 212.261C 121.3 209.671 121.831 205.761 120.112 201.686C 117.921 196.518 117.339 192.264 120.538 184.588C 120.972 183.553 121.159 181.827 121.1 179.452L 118.487 179.518" style="stroke:none; fill-rule:evenodd; fill:#000000"/>
    <path d="M 130.643 179.815C 130.714 182.6 130.382 183.631 130.276 183.881C 126.663 192.557 127.241 197.19 129.573 202.706C 130.991 206.05 130.581 209.28 130.065 211.718C 129.741 213.233 127.96 218.093 127.296 219.839L 129.741 220.765C 129.843 220.499 132.19 214.28 132.62 212.261C 133.218 209.448 133.682 205.698 131.979 201.686C 129.882 196.717 129.413 192.756 132.69 184.885C 133.229 183.585 133.296 181.374 133.257 179.749L 130.643 179.815" style="stroke:none; fill-rule:evenodd; fill:#000000"/>
    <path d="M 140.132 202.057C 141.214 205.628 141.393 210.628 140.882 213.054C 140.558 214.569 139.128 218.46 138.6 219.835L 141.046 220.769C 141.124 220.558 143.007 215.62 143.436 213.597C 144.015 210.862 143.87 205.382 142.632 201.296C 141.241 196.749 140.905 193.842 142.589 188.635L 140.104 187.831C 138.225 193.635 138.64 197.174 140.132 202.057" style="stroke:none; fill-rule:evenodd; fill:#000000"/>
    <path d="M 150.05 200.764L 150.452 202.057C 151.534 205.628 151.714 210.628 151.198 213.054C 150.811 214.878 148.94 219.784 148.921 219.835L 151.362 220.765C 151.444 220.558 153.327 215.62 153.757 213.597C 154.335 210.862 154.19 205.382 152.952 201.296C 152.952 201.292 152.542 199.975 152.542 199.975C 151.409 196.393 150.983 195.053 152.487 190.417L 150.003 189.612C 148.241 195.042 148.882 197.073 150.05 200.764" style="stroke:none; fill-rule:evenodd; fill:#000000"/>
    <path d="M 164.003 179.811C 164.061 182.62 163.737 183.635 163.636 183.881C 160.022 192.557 160.6 197.19 162.932 202.706C 164.35 206.058 163.936 209.284 163.421 211.718C 163.1 213.233 161.311 218.093 160.651 219.839L 163.093 220.765C 163.194 220.499 165.55 214.28 165.979 212.261C 166.526 209.671 167.058 205.757 165.339 201.686C 163.237 196.717 162.772 192.753 166.046 184.885C 166.475 183.854 166.667 182.128 166.616 179.753L 164.003 179.811" style="stroke:none; fill-rule:evenodd; fill:#000000"/>
    <path d="M 171.218 194.393C 171.401 197.932 172.397 200.694 173.249 202.702C 174.671 206.058 174.257 209.284 173.741 211.718C 173.421 213.23 171.628 218.093 170.968 219.835L 173.409 220.765C 173.511 220.499 175.87 214.28 176.296 212.261C 176.847 209.671 177.378 205.757 175.655 201.686C 174.89 199.874 173.991 197.393 173.827 194.256L 171.218 194.393" style="stroke:none; fill-rule:evenodd; fill:#000000"/>
    <path d="M 186.151 176.741C 186.343 180.182 185.956 182.971 184.999 185.018C 181.671 192.167 183.64 198.538 185.405 202.706C 186.823 206.058 186.413 209.284 185.897 211.722C 185.577 213.23 183.784 218.093 183.124 219.835L 185.565 220.765C 185.667 220.499 188.026 214.28 188.456 212.261C 189.003 209.671 189.534 205.757 187.811 201.686C 186.104 197.663 184.515 192.256 187.37 186.124C 188.507 183.678 188.975 180.471 188.761 176.592L 186.151 176.741" style="stroke:none; fill-rule:evenodd; fill:#000000"/>
    <path d="M 195.823 202.053C 196.909 205.62 197.085 210.62 196.569 213.054C 196.249 214.566 194.819 218.46 194.296 219.835L 196.733 220.765C 196.815 220.558 198.698 215.62 199.128 213.597C 199.71 210.855 199.565 205.37 198.323 201.292C 196.936 196.737 196.6 193.827 198.288 188.635L 195.804 187.827C 193.921 193.62 194.335 197.163 195.823 202.053" style="stroke:none; fill-rule:evenodd; fill:#000000"/>
    <path d="M 207.132 202.053C 208.218 205.624 208.397 210.624 207.886 213.054C 207.499 214.878 205.628 219.784 205.608 219.835L 208.05 220.765C 208.132 220.558 210.011 215.62 210.44 213.597C 211.018 210.858 210.878 205.374 209.632 201.292C 208.241 196.741 207.909 193.831 209.597 188.635L 207.108 187.831C 205.229 193.62 205.643 197.163 207.132 202.053" style="stroke:none; fill-rule:evenodd; fill:#000000"/>
    <path d="M 218.765 202.706C 220.186 206.05 219.776 209.28 219.257 211.718C 218.936 213.233 217.151 218.093 216.491 219.839L 218.932 220.765C 219.034 220.499 221.386 214.28 221.815 212.261C 222.409 209.448 222.878 205.698 221.175 201.686C 220.229 199.452 219.202 196.499 219.624 193.467L 217.034 193.108C 216.526 196.772 217.69 200.159 218.765 202.706" style="stroke:none; fill-rule:evenodd; fill:#000000"/>
    <path d="M 227.522 199.964C 227.858 201.51 228.354 203.042 229.085 204.78C 230.507 208.128 230.097 211.358 229.577 213.8C 229.261 215.288 227.897 218.624 227.397 219.784L 229.8 220.816C 229.878 220.636 231.698 216.386 232.136 214.339C 232.682 211.745 233.218 207.823 231.491 203.764C 230.827 202.178 230.378 200.796 230.081 199.413L 227.522 199.964" style="stroke:none; fill-rule:evenodd; fill:#000000"/>
    <path d="M 241.874 213.796C 241.558 215.288 240.194 218.624 239.694 219.784L 242.097 220.816C 242.175 220.636 243.999 216.386 244.429 214.339C 244.741 212.87 244.909 211.62 244.952 210.405L 242.343 210.312C 242.304 211.37 242.155 212.476 241.874 213.796" style="stroke:none; fill-rule:evenodd; fill:#000000"/>
    <path d="M 39.4681 247.116L 250.929 247.116L 250.929 223.37L 39.4681 223.37L 39.4681 247.116z" style="stroke:none; fill-rule:evenodd; fill:#000000"/>
    <path d="M 29.6204 267.776L 2.62042 267.776" style="stroke:#000000; stroke-width:0.5; fill:none"/>
    <path d="M 38.6204 276.776L 38.6204 303.776" style="stroke:#000000; stroke-width:0.5; fill:none"/>
    <path d="M 29.6204 38.6204L 2.62042 38.6204" style="stroke:#000000; stroke-width:0.5; fill:none"/>
    <path d="M 38.6204 29.6204L 38.6204 2.62042" style="stroke:#000000; stroke-width:0.5; fill:none"/>
    <path d="M 276.776 38.6204L 303.776 38.6204" style="stroke:#000000; stroke-width:0.5; fill:none"/>
    <path d="M 267.776 29.6204L 267.776 2.62042" style="stroke:#000000; stroke-width:0.5; fill:none"/>
    <path d="M 276.776 267.776L 303.776 267.776" style="stroke:#000000; stroke-width:0.5; fill:none"/>
    <path d="M 267.776 276.776L 267.776 303.776" style="stroke:#000000; stroke-width:0.5; fill:none"/>
  </g>
</svg>

<svg viewBox="0 0 306.4 306.4"><g transform="matrix(1.35328 0 0 1.35328-53.21-52.19)" fill-rule="evenodd"><path d="m263.65 72.41l-44.38 18.66c-9.05 3.395-16.965 2.828-26.01.566-9.05-2.261-116.47-41.27-116.47-41.27 0 0-7.352 14.13 5.086 19.789 12.438 5.656 18.09 7.914 18.09 7.914l-45.23 2.262c0 0 .566 16.961 13 16.961 12.438 0 54.28-.563 54.28-.563l-72.934 16.961c2.824 11.309 9.04 16.395 19.223 14.699 10.176-1.695 57.1-12.437 61.06-13.57 3.953-1.129 7.348-1.129 10.18 1.133 2.82 2.258 28.828 16.398 28.828 16.398 0 0-27.14-3.961-33.36-4.527-6.218-.562-20.351 4.527-19.789 18.09 0 0 63.883 10.746 72.37 11.875 8.484 1.129 23.753 1.129 32.8-4.528 9.05-5.652 11.875-7.914 16.399-10.175 4.515-2.258 26.566-14.13 26.566-14.13l.285-56.54"/><path d="m50.679 203.39c2.078 2.184 1.281 6.633.613 8.04 0 0-3.695 8.351-3.695 8.351l2.398 1.039 3.656-8.269c1.09-2.285 1.891-7.844-1.078-10.958l-1.895 1.801"/><path d="m61.22 202.2l.238.527c1.418 3.2 1.039 6.341.48 8.997-.32 1.508-2.109 6.371-2.773 8.113l2.441.93c.102-.266 2.461-6.485 2.891-8.504.605-2.887 1.078-6.695-.652-10.594 0-.004-.246-.547-.246-.547-.898-1.985-1.676-3.699-1.215-6.586l-2.582-.41c-.582 3.664.48 6 1.418 8.07"/><path d="m73.74 202.71c1.418 3.352 1.01 6.578.492 9.02-.32 1.508-2.109 6.371-2.769 8.113l2.441.93c.101-.266 2.457-6.485 2.887-8.504.547-2.59 1.078-6.508-.641-10.575-1.543-3.637-2.84-8.316-.797-15.461l-2.512-.719c-2.266 7.926-.817 13.145.902 17.2"/><path d="m82.74 194.39c.184 3.543 1.184 6.305 2.031 8.313 1.418 3.348 1 6.578.488 9.01-.32 1.512-2.109 6.375-2.773 8.117l2.445.93c.098-.266 2.457-6.485 2.887-8.504.547-2.594 1.078-6.508-.641-10.575-.766-1.808-1.664-4.293-1.828-7.43l-2.609.137"/><path d="m95.73 175.36c.5 1.965.695 7.125-.484 9.66-3.324 7.141-1.359 13.516.406 17.688 1.418 3.352 1.01 6.578.492 9.01-.32 1.515-2.113 6.375-2.773 8.117l2.441.93c.102-.266 2.461-6.485 2.887-8.504.551-2.59 1.082-6.504-.637-10.575-1.707-4.03-3.297-9.437-.445-15.566 1.527-3.282 1.238-9.08.644-11.406l-2.531.644"/><path d="m107.11 172.15c.895 2.02 1.489 9.535.7 11.434-3.536 8.468-2.833 13.421-.426 19.12 1.422 3.356 1.01 6.578.492 9.01-.32 1.512-2.109 6.375-2.774 8.117l2.446.93c.101-.266 2.457-6.485 2.886-8.504.547-2.59 1.079-6.504-.64-10.575-2.188-5.176-2.77-9.437.43-17.1 1.144-2.761.355-11.07-.727-13.5l-2.387 1.063"/><path d="m118.49 179.52c.071 2.801-.258 3.82-.359 4.067-3.539 8.484-2.836 13.433-.422 19.12 1.414 3.356 1 6.578.488 9.01-.32 1.512-2.109 6.375-2.773 8.117l2.441.93c.102-.266 2.461-6.485 2.891-8.504.547-2.59 1.078-6.5-.641-10.575-2.191-5.168-2.773-9.422.426-17.1.434-1.035.621-2.761.562-5.136l-2.613.066"/><path d="m130.64 179.81c.071 2.785-.261 3.816-.367 4.066-3.613 8.676-3.035 13.309-.703 18.825 1.418 3.344 1.01 6.574.492 9.01-.324 1.515-2.105 6.375-2.769 8.121l2.445.926c.102-.266 2.449-6.485 2.879-8.504.598-2.813 1.062-6.563-.641-10.575-2.097-4.969-2.566-8.93.711-16.801.539-1.3.606-3.511.567-5.136l-2.614.066"/><path d="m140.13 202.06c1.082 3.571 1.261 8.571.75 10.997-.324 1.515-1.754 5.406-2.282 6.781l2.446.934c.078-.211 1.961-5.149 2.39-7.172.579-2.735.434-8.215-.804-12.301-1.391-4.547-1.727-7.454-.043-12.661l-2.485-.804c-1.879 5.804-1.464 9.343.028 14.226"/><path d="m150.05 200.76l.402 1.293c1.082 3.571 1.262 8.571.746 10.997-.387 1.824-2.258 6.73-2.277 6.781l2.441.93c.082-.207 1.965-5.145 2.395-7.168.578-2.735.433-8.215-.805-12.301 0-.004-.41-1.321-.41-1.321-1.133-3.582-1.559-4.922-.055-9.558l-2.484-.805c-1.762 5.43-1.121 7.461.047 11.152"/><path d="m164 179.81c.058 2.809-.266 3.824-.367 4.07-3.614 8.676-3.036 13.309-.704 18.825 1.418 3.352 1 6.578.489 9.01-.321 1.515-2.11 6.375-2.77 8.121l2.442.926c.101-.266 2.457-6.485 2.886-8.504.547-2.59 1.079-6.504-.64-10.575-2.102-4.969-2.567-8.933.707-16.801.429-1.031.621-2.757.57-5.132l-2.613.058"/><path d="m171.22 194.39c.183 3.539 1.179 6.301 2.031 8.309 1.422 3.356 1.01 6.582.492 9.02-.32 1.512-2.113 6.375-2.773 8.117l2.441.93c.102-.266 2.461-6.485 2.887-8.504.551-2.59 1.082-6.504-.641-10.575-.765-1.812-1.664-4.293-1.828-7.43l-2.609.137"/><path d="m186.15 176.74c.192 3.441-.195 6.23-1.152 8.277-3.328 7.149-1.359 13.52.406 17.688 1.418 3.352 1.01 6.578.492 9.02-.32 1.508-2.113 6.371-2.773 8.113l2.441.93c.102-.266 2.461-6.485 2.891-8.504.547-2.59 1.078-6.504-.645-10.575-1.707-4.02-3.296-9.43-.441-15.562 1.137-2.446 1.605-5.653 1.391-9.532l-2.61.149"/><path d="m195.82 202.05c1.086 3.567 1.262 8.567.746 11-.32 1.512-1.75 5.406-2.273 6.781l2.437.93c.082-.207 1.965-5.145 2.395-7.168.582-2.742.437-8.227-.805-12.305-1.387-4.555-1.723-7.465-.035-12.657l-2.484-.808c-1.883 5.793-1.469 9.336.019 14.226"/><path d="m207.13 202.05c1.086 3.571 1.265 8.571.754 11-.387 1.824-2.258 6.73-2.278 6.781l2.442.93c.082-.207 1.961-5.145 2.39-7.168.578-2.739.438-8.223-.808-12.305-1.391-4.551-1.723-7.461-.035-12.657l-2.489-.804c-1.879 5.789-1.465 9.332.024 14.222"/><path d="m218.76 202.71c1.421 3.344 1.01 6.574.492 9.01-.321 1.515-2.106 6.375-2.766 8.121l2.441.926c.102-.266 2.454-6.485 2.883-8.504.594-2.813 1.063-6.563-.64-10.575-.946-2.234-1.973-5.187-1.551-8.219l-2.59-.359c-.508 3.664.656 7.05 1.731 9.598"/><path d="m227.52 199.96c.336 1.546.832 3.078 1.563 4.816 1.422 3.348 1.012 6.578.492 9.02-.316 1.488-1.68 4.824-2.18 5.984l2.403 1.032c.078-.18 1.898-4.43 2.336-6.477.546-2.594 1.082-6.516-.645-10.575-.664-1.586-1.113-2.968-1.41-4.351l-2.559.551"/><path d="m241.87 213.8c-.316 1.492-1.68 4.828-2.18 5.988l2.403 1.032c.078-.18 1.902-4.43 2.332-6.477.312-1.469.48-2.719.523-3.934l-2.609-.093c-.039 1.058-.188 2.164-.469 3.484"/><path d="m39.468 247.12h211.46v-23.746h-211.46v23.746"/></g></svg>
